X:1
T:O salutaris hostia
T:Anonymous mid-16thc. English Gyffard Partbooks, No. 50 
T:Ed. Jeffrey Quick
T:O salutaris Hostia
T:©2014 Jeffrey Quick
T:©2014 Jeffrey Quick
C:Anonymous English (Gyffard partbooks, No. 50)
Z:©2014 Jeffrey Quick
%%score [ 1 2 3 ]
L:1/8
Q:1/4=120
M:2/2
K:Bb
V:1 treble nm="Soprano" snm="S"
V:2 treble nm="Alto" snm="A"
V:3 bass nm="Baritone" snm="B"
V:1
 z8 | d8 | d4 d4 | d6 c2 | e4 d4- | d4 c4- | c2 d2 B2 B2 | A2 B2 B2 A2 | !fermata!B8 | z8 | z8 | %11
w: |1.O|sa- lu-|ta- ris|Hos- ti-|* a|_ o sa- lu-|ta- ris Hos- ti-|a|||
w: ||ni tri-|no- que|Do- mi-|* no|_ u- ni tri-|no- que Do- mi-|no|||
 z4 G4 | c6 B2 | A4 G4 | z4 c4 | f6 e2 | d4 c4 | B6 B2 | !fermata!A8 | d6 c2 | e4 f4 | d6 c2 | %22
w: quae|coe- li|pan- dis|quae|coe- li|pan- dis|os- ti-|um|bel- la|pre- *|munt hos-|
w: sit|sem- pi-|ter- na|sit|sem- pi-|ter- na|glo- ri-|a|Qui _|vi- tam|si- *|
 e2 d2 edcB | A8 | A8 | B6 G2 | A4 F2 G2 | B2 c2 d3 d | !fermata!=e8 | f8- | f4 e4- | e4 d4 | %32
w: ti- li- * * * *|a|bel-|la pre-|* munt _|hos- * ti- li-|a|da|_ ro-|* bur|
w: * ne ter- * * mi-|no|Qui|vi- tam|si- ne _|ter- * * mi-|no|No-|* bis|_ do-|
 c4 B4- | B4 A2 A2 | !fermata!B8 |] %35
w: fer au-|* xi- li-|um.|
w: net in|_ pa- tri-|a|
V:2
 z8 | z4 D4 | G4 F4 | B6 A2 | G6 F2 | F4 z2 F2 | F2 F2 G2 D2 | F2 D2 C4 | !fermata!B,8 | z8 | F8 | %11
w: |1.O|sa- lu-|ta- ris|Hos- ti-|a o|sa- lu- ta- ris|Hos- * ti-|a||quae|
w: ||ni tri-|no- que|Do- mi-|no u-|ni tri- no- que|Do- * mi-|no||sit|
 B8 | A4 G4 | F4 E2 E2 | F4 z4 | z2 F2 G2 A2 | B4 A4 | G3 F D2 B,2 | !fermata!F8 | F8 | G4 A4 | %21
w: coe-|li pan-|dis os- ti-|um|quae coe- li|pan- dis|os- * * ti-|um|bel-|la pre-|
w: sem-|pi- ter-|na glo- ri-|a|sit sem- pi-|ter- na|glo- * * ri-|a|Qui|vi- tam|
 B6 A2 | G2 F2 E3 E | F8 | C4 F4- | F4 E4 | D2 C2 z2 D2 | B,2 E2 D3 D | !fermata!C8 | F4 B4- | %30
w: munt _|_ hos- ti- li-|a|bel- la||* * pre-|munt hos- ti- li-|a|da ro-|
w: si- *|* ne ter- mi-|no|Qui vi-|* tam|si- ne ter-|* * * mi-|no|No- *|
 B4 G4- | G4 F4- | F4 D2 B,2 | F6 F2 | !fermata!F8 |] %35
w: |* bur|_ fer au-|xi- li-|um.|
w: * bis|_ do-|* net in|pa- tri-|a|
V:3
 B,8- | B,4 B,4- | B,4 B,4- | B,4 F,4 | E,4 B,4- | B,4 A,4 | B,4 G,4 | F,6 F,2 | !fermata!B,,8 | %9
w: 1.O|_ sa-|* lu-|* ta-|ris Hos-|* ti-|a _|Hos- ti-|a|
w: |* ni|_ tri-|* no-|que Do-|* mi-|no _|Do- mi-|no|
 F,4 B,4- | B,4 A,4 | G,8 | F,4 E,2 E,2 | F,4 C,4 | F,6 E,2 | D,4 C,4 | B,,4 F,4 | G,6 G,2 | %18
w: quae coe-|* li|pan-|dis os- ti-|um quae|coe- *|* li|pan- dis|os- ti-|
w: sit sem-|* pi-|ter-|na glo- ri-|a sit|sem- *|* pi-|ter- na|glo- ri-|
 !fermata!F,8 | B,6 A,2 | G,4 F,4 | G,4 D,2 F,2 | E,2 F,2 G,3 G, | F,8 | F,4 F,4 | B,4 G,4 | %26
w: um|bel- la|pre- munt||* hos- ti- li-|a|bel- la|pre- munt|
w: a|Qui _|vi- tam|si- * *|* ne ter- mi-|no|Qui _|vi- tam|
 F,3 E, D,2 B,,2 | G,2 _A,2 F,2 G,2 | !fermata!C,8 | B,,8- | B,,4 E,4- | E,4 B,,4 | F,4 G,4 | %33
w: _ _ _ hos-|ti- li- * *|a|da|_ ro-|* bur|fer au-|
w: si- * * ne|ter- * * mi-|no|No-|* bis|_ do-|net in|
 F,6 F,2 | !fermata!B,,8 |] %35
w: xi- li-|um.|
w: pa- tri-|a|

